svg/aws-firewall.svg

<?xml version="1.0" encoding="UTF-8"?>
<svg xmlns="http://www.w3.org/2000/svg" xmlns:xlink="http://www.w3.org/1999/xlink" width="32" height="32" viewBox="0 0 32 32">
<defs>
<linearGradient id="linear-pattern-0" gradientUnits="userSpaceOnUse" x1="0" y1="1" x2="1" y2="0" gradientTransform="matrix(32, 0, 0, 32, 0, 0)">
<stop offset="0" stop-color="rgb(74.117647%, 3.137255%, 8.627451%)" stop-opacity="1"/>
<stop offset="1" stop-color="rgb(100%, 32.156863%, 32.156863%)" stop-opacity="1"/>
</linearGradient>
</defs>
<rect x="-3.2" y="-3.2" width="38.4" height="38.4" fill="url(#linear-pattern-0)"/>
<path fill-rule="evenodd" fill="rgb(100%, 100%, 100%)" fill-opacity="1" d="M 26 22.996094 L 21.5 22.996094 L 21.5 20.996094 L 26 20.996094 Z M 22 25.996094 L 17.507812 25.996094 L 17.546875 23.996094 L 22 23.996094 Z M 13.898438 25.101562 C 12.320312 25.105469 10.851562 24.296875 10.007812 22.964844 C 9.335938 21.910156 9.324219 20.542969 10 19.367188 C 10.761719 18.203125 10.582031 16.640625 10.34375 15.644531 C 10.976562 16.078125 11.535156 16.902344 11.734375 17.253906 C 11.828125 17.425781 12.015625 17.523438 12.210938 17.507812 C 12.40625 17.492188 12.574219 17.363281 12.640625 17.179688 C 13.339844 15.261719 12.984375 13.816406 12.492188 12.878906 C 14.09375 13.492188 16.5 14.976562 16.5 18.386719 C 16.503906 18.523438 16.558594 18.652344 16.65625 18.746094 C 16.753906 18.839844 16.886719 18.890625 17.023438 18.886719 C 17.410156 18.867188 18.046875 18.621094 18.5 17.933594 L 18.5 19.996094 L 15.5 19.996094 C 15.222656 19.996094 15 20.21875 15 20.496094 L 15 23.496094 C 15 23.773438 15.222656 23.996094 15.5 23.996094 L 16.546875 23.996094 L 16.539062 24.324219 C 15.886719 24.820312 14.949219 25.101562 13.898438 25.101562 M 7.605469 18.242188 C 6.871094 17.757812 6 16.835938 6 15.191406 C 6 12.949219 7.558594 12.214844 8.488281 11.976562 C 8.71875 11.917969 8.875 11.703125 8.863281 11.464844 L 8.824219 10.832031 C 8.824219 9.027344 10.066406 7.085938 11.652344 6.414062 C 14.394531 5.246094 16.339844 6.78125 17.050781 7.496094 C 17.628906 8.078125 18.082031 8.824219 18.394531 9.707031 C 18.457031 9.882812 18.609375 10.011719 18.792969 10.039062 C 18.972656 10.066406 19.15625 9.988281 19.265625 9.839844 C 19.707031 9.230469 20.488281 8.972656 21.203125 9.199219 C 22.003906 9.464844 22.464844 10.257812 22.464844 11.351562 C 22.425781 11.621094 22.605469 11.871094 22.875 11.917969 C 24.976562 12.28125 26 13.289062 26 14.996094 C 26 15.90625 25.789062 16.621094 25.371094 17.167969 C 25.277344 17.058594 25.144531 16.996094 25 16.996094 L 19.550781 16.996094 C 19.402344 16.40625 18.980469 16.054688 18.707031 15.929688 C 18.5625 15.863281 18.390625 15.871094 18.253906 15.953125 C 18.113281 16.03125 18.019531 16.171875 18.003906 16.332031 C 17.925781 17.050781 17.691406 17.433594 17.464844 17.644531 C 16.96875 12.4375 11.316406 11.511719 11.257812 11.503906 C 11.035156 11.46875 10.820312 11.589844 10.726562 11.792969 C 10.636719 12 10.695312 12.242188 10.867188 12.386719 C 10.9375 12.441406 12.324219 13.609375 11.96875 15.828125 C 11.421875 15.148438 10.574219 14.359375 9.582031 14.359375 C 9.414062 14.359375 9.261719 14.445312 9.167969 14.582031 C 9.078125 14.71875 9.058594 14.894531 9.117188 15.046875 C 9.125 15.070312 9.925781 17.109375 9.332031 18.496094 L 8.46875 18.496094 C 8.152344 18.496094 7.855469 18.410156 7.605469 18.242188 M 21 19.996094 L 19.5 19.996094 L 19.5 17.996094 L 24.5 17.996094 L 24.5 19.996094 Z M 16 22.996094 L 16 20.996094 L 20.5 20.996094 L 20.5 22.996094 Z M 26.5 19.996094 L 25.5 19.996094 L 25.5 18.4375 C 26.492188 17.667969 27 16.515625 27 14.996094 C 27 13.519531 26.371094 11.664062 23.449219 11.011719 C 23.34375 9.640625 22.636719 8.621094 21.515625 8.25 C 20.675781 7.976562 19.753906 8.128906 19.046875 8.660156 C 18.726562 7.96875 18.292969 7.335938 17.761719 6.789062 C 15.984375 5.003906 13.554688 4.519531 11.261719 5.492188 C 9.300781 6.324219 7.824219 8.621094 7.824219 10.863281 L 7.84375 11.128906 C 6.757812 11.503906 5 12.527344 5 15.191406 C 5 17.386719 6.285156 18.570312 7.050781 19.074219 C 7.46875 19.351562 7.964844 19.5 8.46875 19.496094 L 8.828125 19.496094 C 8.292969 20.828125 8.40625 22.3125 9.164062 23.503906 C 10.195312 25.121094 11.980469 26.101562 13.898438 26.101562 C 14.871094 26.101562 15.773438 25.890625 16.519531 25.507812 L 16.5 26.488281 C 16.5 26.621094 16.550781 26.75 16.644531 26.84375 C 16.738281 26.9375 16.867188 26.992188 17 26.996094 L 22.5 26.996094 C 22.777344 26.996094 23 26.773438 23 26.496094 L 23 23.996094 L 26.5 23.996094 C 26.777344 23.996094 27 23.773438 27 23.496094 L 27 20.496094 C 27 20.21875 26.777344 19.996094 26.5 19.996094 M 26.5 19.996094 "/>
</svg>

<svg role="img" viewBox="0 0 32 32" height="32" width="32" xmlns="http://www.w3.org/2000/svg"><defs><linearGradient gradientTransform="scale(32)" gradientUnits="userSpaceOnUse" id="393__392__250__249__498__497__136__135__137__136__498__497__133__132__29__28__59__58__495__494__aws-firewall_svg__svg/aws-firewall.svg275__svg/aws-firewall.svg273__aws-firewall-lp-0" x1="0" x2="1" y1="1" y2="0"><stop offset="0" stop-color="rgb(74.117647%, 3.137255%, 8.627451%)"/><stop offset="1" stop-color="rgb(100%, 32.156863%, 32.156863%)"/></linearGradient></defs><path d="M-3.2-3.2h38.4v38.4H-3.2z" fill="url(#393__392__250__249__498__497__136__135__137__136__498__497__133__132__29__28__59__58__495__494__aws-firewall_svg__svg/aws-firewall.svg275__svg/aws-firewall.svg273__aws-firewall-lp-0)"/><path d="M26 22.996h-4.5v-2H26Zm-4 3h-4.492l.039-2H22Zm-8.102-.894a4.594 4.594 0 0 1-3.89-2.137c-.672-1.055-.684-2.422-.008-3.598.762-1.164.582-2.726.344-3.722.633.433 1.191 1.257 1.39 1.609a.5.5 0 0 0 .906-.074c.7-1.918.344-3.364-.148-4.301 1.602.613 4.008 2.098 4.008 5.508a.51.51 0 0 0 .523.5c.387-.02 1.024-.266 1.477-.953v2.062h-3c-.277 0-.5.223-.5.5v3c0 .277.223.5.5.5h1.047l-.008.328c-.652.496-1.59.778-2.64.778m-6.294-6.86C6.871 17.758 6 16.836 6 15.192c0-2.243 1.559-2.977 2.488-3.215a.501.501 0 0 0 .375-.512l-.039-.633c0-1.805 1.242-3.746 2.828-4.418 2.743-1.168 4.688.367 5.399 1.082.578.582 1.031 1.328 1.344 2.211a.504.504 0 0 0 .398.332c.18.027.363-.05.473-.2a1.743 1.743 0 0 1 1.937-.64c.8.266 1.262 1.059 1.262 2.153a.5.5 0 0 0 .41.566c2.102.363 3.125 1.371 3.125 3.078 0 .91-.21 1.625-.629 2.172a.491.491 0 0 0-.371-.172h-5.45c-.148-.59-.57-.941-.843-1.066a.49.49 0 0 0-.453.023.487.487 0 0 0-.25.379c-.078.719-.313 1.102-.54 1.313-.495-5.207-6.148-6.133-6.206-6.141a.5.5 0 0 0-.531.289.512.512 0 0 0 .14.594c.07.054 1.457 1.222 1.102 3.441-.547-.68-1.395-1.469-2.387-1.469a.508.508 0 0 0-.414.223.515.515 0 0 0-.05.465c.007.023.808 2.062.214 3.45h-.863c-.317 0-.614-.087-.864-.255M21 19.996h-1.5v-2h5v2Zm-5 3v-2h4.5v2Zm10.5-3h-1v-1.558c.992-.77 1.5-1.922 1.5-3.442 0-1.476-.629-3.332-3.55-3.984-.106-1.371-.813-2.39-1.934-2.762a2.713 2.713 0 0 0-2.47.41 6.765 6.765 0 0 0-1.284-1.87c-1.778-1.786-4.207-2.27-6.5-1.298-1.961.832-3.438 3.13-3.438 5.371l.02.266C6.758 11.504 5 12.527 5 15.19c0 2.196 1.285 3.38 2.05 3.883.419.278.915.426 1.419.422h.36c-.536 1.332-.423 2.817.335 4.008a5.616 5.616 0 0 0 4.734 2.598c.973 0 1.875-.211 2.622-.594l-.02.98c0 .133.05.262.145.356a.527.527 0 0 0 .355.152h5.5c.277 0 .5-.223.5-.5v-2.5h3.5c.277 0 .5-.223.5-.5v-3c0-.277-.223-.5-.5-.5m0 0" fill="rgb(100%, 100%, 100%)" fill-rule="evenodd"/></svg>
